X: 092
T: Banners Cross
B: 204 Favourite Country Dances
N: Published by Straight & Skillern, London ca.1775
F: http://imslp.org/wiki/204_Favourite_Country_Dances_(Various) p.46 #92
Z: 2014 John Chambers <jc:trillian.mit.edu>
M: 6/8
L: 1/8
K: D
% - - - - - - - - - - - - - - - - - - - - - - - - -
|:\
dcd ecA | Bcd e3 |\
dcd ecA | Bdc d3 :|\
|:\
ecA ecA | ecA g3 |\
bag faf | ecA d3 :|
% - - - - - - - - - - - - - - - - - - - - - - - - -
%%begintext align
%% Cast off 2 Cu. cast up again,
%% cross over 2 Cu. lead up & cast off,
%% set corners & turn, lead out sides.
%%endtext

%%sep 1 1 500
%%sep 1 1 500
